!!!!SEGMENT: pl-kk--kk-i-7--045-001_luython-carl--missa-kyrie.krn
!!!cenid: 16xx:844
!!!COM: Luython, Carl
!!!COM-rismid: pe30012976
!!!CDT: ~1557-1620
!!!CNT:
!!!OPR: Missa
!!!OTL: Kyrie
!!!OMV: 001
!!!PDT:
!!!AGN: Sacred; Mass
!!!SMS-siglum: PL-Kk
!!!SMS-shelfmark: Kk.I.7
!!!SMS-shelfwork: 045-001 M
!!!SMS-variant:
!!!SMS-altvar:
!!!NIFC-rismid: 300258122
!!!URL-scan: http://repozytorium.nifc.pl/skany/pl-kk-nut--i-7
!!!ONB-nifc: UWAGA: C (skan 0039, s.65), A (0123, s.65), T (0199, s.65), B (0289-0290, s.65-67). Części Mszy: 1. Kyrie, 2. Et in terra, 3. Sanctus, 4. Agnus Dei
**kern	**text	**kern	**text	**kern	**text	**kern	**text
*part4	*part4	*part3	*part3	*part2	*part2	*part1	*part1
*staff4	*staff4	*staff3	*staff3	*staff2	*staff2	*staff1	*staff1
*Ibass	*	*Itenor	*	*Ialto	*	*Ivox	*
*I"BASSVS.	*	*I"TENOR.	*	*I"ALTVS.	*	*I"CANTVS.	*
*I'B	*	*I'T	*	*I'A	*	*I'S.	*
*clefF4	*	*clefC4	*	*clefC3	*	*clefC1	*
*k[]	*	*k[]	*	*k[]	*	*k[]	*
*d:	*	*d:	*	*d:	*	*d:	*
*M2/1	*	*M2/1	*	*M2/1	*	*M2/1	*
*met(C|)	*	*met(C|)	*	*met(C|)	*	*met(C|)	*
=1-	=1-	=1-	=1-	=1-	=1-	=1-	=1-
!LO:TX:a:t=Miſsa 4 dri=Voca I.	!	!LO:TX:a:t=Miſsa 4 dri=Voca I.	!	!LO:TX:a:t=Miſsa 4 dri=Voca I.	!	!LO:TX:a:t=Miſsa 4 dri=Voca I.	!
!	!	!LO:TX:t=P:problem:kreska pseudotaktowa	!	!LO:TX:t=P:problem:kreska pseudotaktowa	!	!	!
00r	.	00r	.	1d	Ky-	2r	.
.	.	.	.	.	.	1a	Ky-
.	.	.	.	2c#X/	-ri-	.	.
*	*	*	*	*	*	*2\right	*
!	!	!	!	!	!	!LO:TX:t=P:problem:kreska pseudotaktowa	!
.	.	.	.	1f\	-e	2a\	-ri-
=2-	=2-	=2-	=2-	=2-	=2-	=2-	=2-
.	.	.	.	.	.	2d/	-e
!	!	!	!	!	!	!LO:TX:t=P:problem:kreska pseudotaktowa	!
.	.	.	.	4e\	.	2a\	e-
!	!	!	!	!LO:TX:t=P:problem:kreska pseudotaktowa	!	!	!
.	.	.	.	4d\	.	.	.
.	.	.	.	4e\	e-	4g/	.
.	.	.	.	4d\	.	4f/	.
*	*	*	*	*2\right	*	*	*
!	!	!	!	!LO:TX:t=P:problem:kreska pseudotaktowa:między nutą a kropką, połączone ligaturą	!	!	!
.	.	.	.	2.d\	-lei-	4f/	.
.	.	.	.	.	.	8e/L	.
!	!	!	!	!	!	!LO:TX:t=P:problem:kreska pseudotaktowa	!
.	.	.	.	.	.	8d/J	.
=3-	=3-	=3-	=3-	=3-	=3-	=3-	=3-
!LO:TX:t=P:problem:kreska pseudotaktowa	!	!	!	!	!	!	!
1r	.	2r	.	.	.	1e	-lei-
.	.	.	.	8c#X/L	.	.	.
.	.	.	.	8B/J	.	.	.
.	.	1A	Ky-	2c#/	.	.	.
!	!	!	!	!LO:TX:t=P:problem:kreska pseudotaktowa	!	!LO:TX:t=P:problem:kreska pseudotaktowa	!
1.D	Ky-	.	.	1d	-son	1d	-son
!	!	!LO:TX:t=P:problem:kreska pseudotaktowa	!	!	!	!	!
.	.	2F#X/	-ri-	.	.	.	.
=4-	=4-	=4-	=4-	=4-	=4-	=4-	=4-
*	*	*2\right	*	*	*	*	*
!	!	!	!	!	!	!LO:TX:t=P:problem:kreska pseudotaktowa	!
.	.	2B-X\	-e	0r	.	0r	.
!LO:TX:t=P:problem:kreska pseudotaktowa	!	!	!	!	!	!	!
2C#X/	-ri-	1A	e-	.	.	.	.
*2\right	*	*	*	*	*	*	*
2.F\	-e	.	.	.	.	.	.
!	!	!LO:TX:t=P:problem:kreska pseudotaktowa:między nutą a kropką, połaczone ligaturą	!	!	!	!	!
.	.	2.d\	-lei-	.	.	.	.
!LO:TX:t=P:problem:kreska pseudotaktowa	!	!	!	!	!	!	!
4G\	(e)-	.	.	.	.	.	.
=5-	=5-	=5-	=5-	=5-	=5-	=5-	=5-
!	!	!	!	!LO:TX:t=P:problem:kreska pseudotaktowa	!	!	!
2.A\	-lei-	.	.	1r	.	2r	.
.	.	4c\	.	.	.	.	.
.	.	4c\	.	.	.	1a	Ky-
8G\L	.	8Bny\L	.	.	.	.	.
!LO:TX:t=P:problem:kreska pseudotaktowa	!	!LO:TX:t=P:problem:kreska pseudotaktowa	!	!	!	!	!
8F\J	.	8A\J	.	.	.	.	.
!	!	!LO:TX:t=P:problem:kreska pseudotaktowa	!	!	!	!	!
4E\	.	1Bn	.	2r	.	.	.
4D\	.	.	.	.	.	.	.
!LO:TX:t=P:problem:kreska pseudotaktowa	!	!	!	!	!	!LO:TX:t=P:problem:kreska pseudotaktowa	!
2E\	.	.	.	1e\	Ky-	2g#X/	-ri-
=6-	=6-	=6-	=6-	=6-	=6-	=6-	=6-
!LO:TX:t=P:problem:kreska pseudotaktowa	!	!	!	!	!	!	!
1AA	-son	2A,/	-son	.	.	2.cc\	-e
!	!	!	!	!LO:TX:t=P:problem:kreska pseudotaktowa	!	!	!
.	.	1A	Ky-	2e\	-ri-	.	.
!	!	!	!	!	!	!LO:TX:t=P:problem:kreska pseudotaktowa	!
.	.	.	.	.	.	4dd\	e-
2rC	.	.	.	2A/	-e	2ee\	.
!	!	!LO:TX:t=P:problem:kreska pseudotaktowa	!	!LO:TX:t=P:problem:kreska pseudotaktowa	!	!LO:TX:t=P:problem:kreska pseudotaktowa:między nutą a kropką, połączone ligaturą	!
1D\	Ky-	2F#X/	-ri-	2d\	e-	2.a\	.
=7-	=7-	=7-	=7-	=7-	=7-	=7-	=7-
!	!	!	!	!LO:TX:t=P:problem:kreska pseudotaktowa	!	!	!
.	.	2B-X\	-e	1d	-lei-	.	.
.	.	.	.	.	.	2gny/	.
!LO:TX:t=P:problem:kreska pseudotaktowa	!	!LO:TX:t=P:problem:kreska pseudotaktowa	!	!	!	!	!
2D\	-ri-	2A\	e-	.	.	.	.
!	!	!	!	!	!	!LO:TX:t=P:problem:kreska pseudotaktowa	!
.	.	.	.	.	.	4f#X/	.
2GG/	-e	2G/	-lei-	2d,\	-son	2b-X\	.
!LO:TX:t=P:problem:kreska pseudotaktowa	!	!LO:TX:t=P:problem:kreska pseudotaktowa	!	!LO:TX:t=P:problem:kreska pseudotaktowa	!	!	!
2D\	e-	2F#X/	.	2A/	e-	4a\	.
!	!	!	!	!	!	!LO:TX:t=P:problem:kreska pseudotaktowa	!
.	.	.	.	.	.	[<4dd\	.
=8-	=8-	=8-	=8-	=8-	=8-	=8-	=8-
*lig	*	*	*	*	*	*	*
1GG	-lei-	2.G/	.	4B/	-lei-	4dd\]	.
.	.	.	.	4cny/	.	4cc\	.
!	!	!	!	!LO:TX:t=P:problem:kreska pseudotaktowa:między nutą a kropką, połączone ligaturą	!	!LO:TX:t=P:problem:kreska pseudotaktowa	!
.	.	.	.	2.d\	.	2b-X\	.
!	!	!LO:TX:t=P:problem:kreska pseudotaktowa	!	!	!	!	!
.	.	4Fny/	.	.	.	.	.
1AA	.	4E/	.	.	.	1a	-lei-
.	.	4D/	.	8c#X/L	.	.	.
.	.	.	.	8B/J	.	.	.
!	!	!LO:TX:t=P:problem:kreska pseudotaktowa	!	!	!	!	!
.	.	2E/	.	2c#X/	.	.	.
*Xlig	*	*	*	*	*	*	*
=9-	=9-	=9-	=9-	=9-	=9-	=9-	=9-
0Dl;	-son	0Dl;	-son.	0dl;	-son	0f#Xl;	-son
!LO:LB:g=original	!	!LO:LB:g=original	!	!LO:LB:g=original	!	!LO:LB:g=original	!
=10||	=10||	=10||	=10||	=10||	=10||	=10||	=10||
*M2/1	*	*M2/1	*	*M2/1	*	*M2/1	*
*met(C|)	*	*met(C|)	*	*met(C|)	*	*met(C|)	*
!	!	!LO:TX:t=P:problem:kreska pseudotaktowa	!	!LO:TX:t=P:problem:kreska pseudotaktowa	!	!LO:TX:t=P:problem:kreska pseudotaktowa	!
1D	Chri-	1re	.	0r	.	00r	.
2E\	-ste	2r	.	.	.	.	.
!LO:TX:t=P:problem:kreska pseudotaktowa	!	!LO:TX:t=P:problem:kreska pseudotaktowa	!	!	!	!	!
2F#X\	e-	2A\	Chri-	.	.	.	.
=11-	=11-	=11-	=11-	=11-	=11-	=11-	=11-
!	!	!	!	!LO:TX:t=P:problem:kreska pseudotaktowa	!	!	!
2.G\	.	4B\	-ste	1d	Chri-	.	.
.	.	4c#X\	e-	.	.	.	.
.	.	1d	-lei-	.	.	.	.
!LO:TX:t=P:problem:kreska pseudotaktowa	!	!	!	!	!	!	!
4Fny\	.	.	.	.	.	.	.
4E\	-lei-	.	.	4e\	-ste	.	.
4D\	.	.	.	4f#X\	.	.	.
!	!	!LO:TX:t=P:problem:kreska pseudotaktowa	!	!	!	!	!
2E\	.	2c#X\	.	1g\	.	.	.
=12-	=12-	=12-	=12-	=12-	=12-	=12-	=12-
!LO:TX:t=P:problem:kreska pseudotaktowa	!	!LO:TX:t=P:problem:kreska pseudotaktowa	!	!	!	!	!
1D	-son	1d	-son	.	.	1a	Chri-
!	!	!	!	!LO:TX:t=P:problem:kreska pseudotaktowa	!	!	!
.	.	.	.	2fn\	e-	.	.
1r	.	2r	.	4e\	-lei-	2b\	-ste
.	.	.	.	4d\	.	.	.
!	!	!LO:TX:t=P:problem:kreska pseudotaktowa	!	!LO:TX:t=P:problem:kreska pseudotaktowa	!	!LO:TX:t=P:problem:kreska pseudotaktowa	!
.	.	2A\	Chri-	2e\	.	2cc#X\	e-
=13-	=13-	=13-	=13-	=13-	=13-	=13-	=13-
!	!	!	!	!LO:TX:t=P:problem:kreska pseudotaktowa	!	!	!
2r	.	4B\	-ste	1d	-son	2.dd\	.
.	.	4c#X\	.	.	.	.	.
!LO:TX:t=P:problem:kreska pseudotaktowa	!	!	!	!	!	!	!
2D\	Chri-	1d	e-	.	.	.	.
!	!	!	!	!	!	!LO:TX:t=P:problem:kreska pseudotaktowa	!
.	.	.	.	.	.	4ccny\	.
2E\	-ste	.	.	2rA	.	2bn\	.
*	*	*	*	*	*ij	*	*
!LO:TX:t=P:problem:kreska pseudotaktowa	!	!LO:TX:t=P:problem:kreska pseudotaktowa	!	!LO:TX:t=P:problem:kreska pseudotaktowa	!	!LO:TX:t=P:problem:kreska pseudotaktowa	!
2F#X\	e-	2cn\	.	2A/	Chri-	2a\	.
=14-	=14-	=14-	=14-	=14-	=14-	=14-	=14-
2.G\	.	2.B\	-lei-	4B/	-ste	0g	-lei-
.	.	.	.	4c#X/	.	.	.
.	.	.	.	1d	e-	.	.
!LO:TX:t=P:problem:kreska pseudotaktowa	!	!	!	!	!	!	!
4Fny\	.	4A\	.	.	.	.	.
!	!	!LO:TX:t=P:problem:kreska pseudotaktowa	!	!	!	!	!
4E\	.	1G	.	.	.	.	.
4D\	.	.	.	.	.	.	.
!	!	!	!	!LO:TX:t=P:problem:kreska pseudotaktowa	!	!	!
2E\	-lei-	.	.	2c#X\	-lei-	.	.
=15-	=15-	=15-	=15-	=15-	=15-	=15-	=15-
!LO:TX:t=P:problem:kreska pseudotaktowa	!	!LO:TX:a:t=P:problem:cezura między nutą a kropką	!	!LO:TX:t=P:problem:kreska pseudotaktowa	!	!LO:TX:t=P:problem:kreska pseudotaktowa	!
1D	-son	2.A,\	-son	1d	-son	1f#X	-son
*	*	*	*	*	*Xij	*	*
!	!	!LO:TX:t=P:problem:kreska pseudotaktowa	!	!	!	!	!
.	.	4A\	X-	.	.	.	.
2r	.	2B\	-te	4r	.	2r	.
.	.	.	.	4d\	e-	.	.
!	!	!LO:TX:t=P:problem:kreska pseudotaktowa	!	!	!	!LO:TX:t=P:problem:kreska pseudotaktowa	!
2A\	X-	2c#X\	e-	4e\	.	2a\	Chri-
!	!	!	!	!LO:TX:t=P:problem:kreska pseudotaktowa	!	!	!
.	.	.	.	4f#X\	.	.	.
=16-	=16-	=16-	=16-	=16-	=16-	=16-	=16-
2G\	-te	2d\	-lei-	2.g\	-lei-	2b\	-ste
!LO:TX:t=P:problem:kreska pseudotaktowa	!	!	!	!	!	!LO:TX:t=P:problem:kreska pseudotaktowa	!
2E\	e-	4G,/	-son	.	.	2cc#X\	e-
!	!	!LO:TX:t=P:problem:kreska pseudotaktowa	!	!	!	!	!
.	.	4G/	e-	8fny\L	.	.	.
.	.	.	.	8e\J	.	.	.
2.F\	.	4A\	.	4d\	.	4dd\	.
.	.	4B\	.	4e\	.	8cc#\L	.
.	.	.	.	.	.	8b\J	.
!	!	!LO:TX:t=P:problem:kreska pseudotaktowa:między nutą a kropką, połączone ligaturą	!	!LO:TX:t=P:problem:kreska pseudotaktowa	!	!	!
.	.	2.cny\	-lei-	2f\	.	4a\	.
!	!	!	!	!	!	!LO:TX:t=P:problem:kreska pseudotaktowa	!
8E\L	.	.	.	.	.	4b\	.
!LO:TX:t=P:problem:kreska pseudotaktowa	!	!	!	!	!	!	!
8D\J	.	.	.	.	.	.	.
=17-	=17-	=17-	=17-	=17-	=17-	=17-	=17-
*	*	*	*	*	*	*lig	*
2.C/	-lei-	.	.	0e	.	1ccny	-lei-
.	.	4B\	.	.	.	.	.
!	!	!LO:TX:t=P:problem:kreska pseudotaktowa:między nutą a kropką, połączone ligaturą	!	!	!	!	!
.	.	2.A/	.	.	.	.	.
4D\	.	.	.	.	.	.	.
!	!	!	!	!	!	!LO:TX:a:t=P:problem:♮ above	!
1E	.	.	.	.	.	1bn	.
.	.	8G#X/L	.	.	.	.	.
!	!	!LO:SIC:v:s=8F#	!	!	!	!	!
.	.	8F/J	.	.	.	.	.
!	!	!LO:TX:b:t=P:problem:# below	!	!	!	!	!
.	.	2G#X/	.	.	.	.	.
*	*	*	*	*	*	*Xlig	*
=18-	=18-	=18-	=18-	=18-	=18-	=18-	=18-
*	*	*	*	*	*	*col	*
0AAl;	-son.	0Al;	-son	0c#Xl;/	-son.	0al;	-son.
*	*	*	*	*	*	*Xcol	*
!LO:LB:g=original	!	!LO:LB:g=original	!	!LO:LB:g=original	!	!	!
=19||	=19||	=19||	=19||	=19||	=19||	=19||	=19||
*M2/1	*	*M2/1	*	*M2/1	*	*M2/1	*
*met(C|)	*	*met(C|)	*	*met(C|)	*	*met(C|)	*
!	!	!	!	!LO:TX:t=P:problem:kreska pseudotaktowa	!	!	!
00r	.	1.A	Ky-	1r	.	2r	.
.	.	.	.	.	.	1cc	Ky-
.	.	.	.	1.e	Ky-	.	.
!	!	!	!	!	!	!LO:TX:t=P:problem:kreska pseudotaktowa	!
!	!	!	!	!	!	!LO:TX:a:t=P:problem:♮ above	!
.	.	2G/	-ri-	.	.	2bn\	-ri-
=20-	=20-	=20-	=20-	=20-	=20-	=20-	=20-
.	.	2.F/	-e	.	.	2.a\	-e
!	!	!	!	!LO:TX:t=P:problem:kreska pseudotaktowa	!	!	!
.	.	.	.	2d\	-ri-	.	.
.	.	8E/L	e-	.	.	8g\L	.
!	!	!LO:TX:t=P:problem:kreska pseudotaktowa	!	!	!	!LO:TX:t=P:problem:kreska pseudotaktowa	!
.	.	8D/J	.	.	.	8f\J	.
.	.	2En/	-lei-	2.c/	-e	2g\	.
!	!	!	!	!	!	!LO:TX:t=P:problem:kreska pseudotaktowa	!
!	!	!	!	!	!	!LO:SIC:v:t=custos d	!
.	.	2F#X/	.	.	.	2a\	.
.	.	.	.	8B/L	.	.	.
!	!	!	!	!LO:TX:t=P:problem:kreska pseudotaktowa	!	!	!
.	.	.	.	8A/J	.	.	.
!	!	!	!	!	!	!LO:LB:g=original	!
=21-	=21-	=21-	=21-	=21-	=21-	=21-	=21-
*	*	*lig	*	*	*	*	*
!LO:TX:t=P:problem:kreska pseudotaktowa	!	!	!	!	!	!	!
0r	.	1G	.	4B/	e-	2.d/	e-
.	.	.	.	4c#X/	.	.	.
.	.	.	.	1d	.	.	.
!	!	!	!	!	!	!LO:TX:t=P:problem:kreska pseudotaktowa	!
.	.	.	.	.	.	4e/	.
!	!	!LO:TX:t=P:problem:kreska pseudotaktowa	!	!	!	!	!
.	.	1A	.	.	.	2f/	-lei-
!	!	!	!	!LO:TX:t=P:problem:kreska pseudotaktowa	!	!LO:TX:t=P:problem:kreska pseudotaktowa	!
.	.	.	.	2c#X\	.	2e/	.
*	*	*Xlig	*	*	*	*	*
=22-	=22-	=22-	=22-	=22-	=22-	=22-	=22-
*	*	*	*	*lig	*	*	*
!	!	!LO:TX:t=P:problem:kreska pseudotaktowa	!	!	!	!LO:TX:t=P:problem:kreska pseudotaktowa	!
2r	.	1D	-son	1f	-lei-	1d	-son
1D	Ky-	.	.	.	.	.	.
!	!	!LO:TX:t=P:problem:kreska pseudotaktowa	!	!	!	!	!
!	!	!LO:TX:a:t=1.	!	!	!	!	!
.	.	1re	.	1e	.	1.a	Ky-
!LO:TX:t=P:problem:kreska pseudotaktowa	!	!	!	!	!	!	!
2C/	-ri-	.	.	.	.	.	.
*	*	*	*	*Xlig	*	*	*
=23-	=23-	=23-	=23-	=23-	=23-	=23-	=23-
!	!	!	!	!LO:TX:t=P:problem:kreska pseudotaktowa	!	!	!
2.BB-X/	-e	2r	.	1d	-son	.	.
!	!	!	!	!	!	!LO:TX:t=P:problem:kreska pseudotaktowa	!
.	.	2.d\	Ky-	.	.	2g/	-ri-
8AA/L	.	.	.	.	.	.	.
!LO:TX:t=P:problem:kreska pseudotaktowa	!	!	!	!	!	!	!
8GG/J	.	.	.	.	.	.	.
!	!	!	!	!LO:TX:t=P:problem:kreska pseudotaktowa	!	!	!
2AA/	e-	.	.	1rg	.	2.f/	-e
.	.	4c\	-ri-	.	.	.	.
!LO:TX:t=P:problem:kreska pseudotaktowa	!	!LO:TX:t=P:problem:kreska pseudotaktowa	!	!	!	!	!
2BBn/	.	2d\	-e	.	.	.	.
.	.	.	.	.	.	8e/L	.
!	!	!	!	!	!	!LO:TX:t=P:problem:kreska pseudotaktowa	!
.	.	.	.	.	.	8d/J	.
=24-	=24-	=24-	=24-	=24-	=24-	=24-	=24-
4C\	-lei-	2.G/	e-	2r	.	4e/	e-
4D\	.	.	.	.	.	4f/	.
4E\	.	.	.	1e	Ky-	1g	.
!LO:TX:t=P:problem:kreska pseudotaktowa	!	!LO:TX:t=P:problem:kreska pseudotaktowa	!	!	!	!	!
4F\	.	4A\	.	.	.	.	.
2G\	.	4Bn\	.	.	.	.	.
.	.	4c\	.	.	.	.	.
!LO:TX:t=P:problem:kreska pseudotaktowa	!	!	!	!LO:TX:t=P:problem:kreska pseudotaktowa	!	!LO:TX:t=P:problem:kreska pseudotaktowa	!
2D\	-son	2d\	.	2d\	-ri-	2f/	.
=25-	=25-	=25-	=25-	=25-	=25-	=25-	=25-
2r	.	1A	-lei-	2.cny/	-e	1e	-lei-
1A	Ky-	.	.	.	.	.	.
.	.	.	.	8B/L	.	.	.
!	!	!	!	!LO:TX:t=P:problem:kreska pseudotaktowa	!	!	!
.	.	.	.	8A/J	.	.	.
!	!	!LO:TX:t=P:problem:kreska pseudotaktowa	!	!	!	!	!
.	.	1E	-son	4B/	e-	2e,/	-son
.	.	.	.	4c/	.	.	.
!LO:TX:t=P:problem:kreska pseudotaktowa	!	!	!	!LO:TX:t=P:problem:kreska pseudotaktowa	!	!	!
2G\	-ri-	.	.	2B/	-lei-	1ee\	Ky-
=26-	=26-	=26-	=26-	=26-	=26-	=26-	=26-
!	!	!	!	!LO:TX:t=P:problem:kreska pseudotaktowa	!	!	!
2.F\	-e	2r	.	1A	-son	.	.
!	!	!	!	!	!	!LO:TX:t=P:problem:kreska pseudotaktowa	!
.	.	2.A/	Ky-	.	.	2dd\	-ri-
8E\L	.	.	.	.	.	.	.
!LO:TX:t=P:problem:kreska pseudotaktowa	!	!	!	!	!	!	!
8D\J	.	.	.	.	.	.	.
!	!	!	!	!LO:TX:t=P:problem:kreska pseudotaktowa	!	!	!
2E\	e-	.	.	1rg	.	2.cc\	-e
.	.	4G/	-ri-	.	.	.	.
!LO:TX:t=P:problem:kreska pseudotaktowa	!	!	!	!	!	!	!
2F#X\	.	4A\	-e	.	.	.	.
!	!	!LO:TX:t=P:problem:kreska pseudotaktowa	!	!	!	!	!
.	.	[<4d\	.	.	.	8b\L	.
!	!	!	!	!	!	!LO:TX:t=P:problem:kreska pseudotaktowa	!
.	.	.	.	.	.	8a\J	.
=27-	=27-	=27-	=27-	=27-	=27-	=27-	=27-
2.G\	.	4d\]	.	2.d\	Ky-	4b\	e-
.	.	4c\	.	.	.	4cc\	.
.	.	4B\	e-	.	.	1dd	.
8Fny\L	.	8A\L	.	4e\	-ri-	.	.
!LO:TX:t=P:problem:kreska pseudotaktowa	!	!LO:TX:t=P:problem:kreska pseudotaktowa	!	!	!	!	!
8E\J	.	8G\J	.	.	.	.	.
4D\	-lei-	2.A\	.	2f\	-e	.	.
4E\	.	.	.	.	.	.	.
!	!	!	!	!LO:TX:t=P:problem:kreska pseudotaktowa	!	!LO:TX:t=P:problem:kreska pseudotaktowa	!
4F\	.	.	.	2d\	e-	2a\	.
!LO:TX:t=P:problem:kreska pseudotaktowa	!	!	!	!	!	!	!
4D\	.	4B\	.	.	.	.	.
=28-	=28-	=28-	=28-	=28-	=28-	=28-	=28-
*lig	*	*	*	*	*	*	*
1A	.	2c#X\	-lei-	2e\	.	0a	-lei-
.	.	2.d\	.	2f\	.	.	.
!	!	!	!	!LO:TX:t=P:problem:kreska pseudotaktowa	!	!	!
1AA	.	.	.	1e	-lei-	.	.
.	.	8c#X\L	.	.	.	.	.
.	.	8B\J	.	.	.	.	.
!	!	!LO:TX:a:t=P:problem:# above	!	!	!	!	!
.	.	2c#X\	.	.	.	.	.
*Xlig	*	*	*	*	*	*	*
=29-	=29-	=29-	=29-	=29-	=29-	=29-	=29-
0Dl;	-son	0dl;	-son.	0Al;	-son.	0f#Xl;	-son.
==	==	==	==	==	==	==	==
*-	*-	*-	*-	*-	*-	*-	*-
!!!system-decoration: [s1,s2,s3,s4]
!!!RDF**kern: < = below
!!!RDF**kern: l = terminal long
!!!ENC: Marta Lawrence
!!!END: 2021-03-15
!!!ENC: Andrzej Gręziak
!!!END: 2021-02-25
